svgs/light/angle-90.svg

<svg xmlns="http://www.w3.org/2000/svg" viewBox="0 0 448 512"><!--! Font Awesome Pro 6.3.0 by @fontawesome - https://fontawesome.com License - https://fontawesome.com/license (Commercial License) Copyright 2023 Fonticons, Inc. --><path d="M267.3 268.4c3.156 4.109 7.922 6.281 12.73 6.281c3.391 0 6.797-1.078 9.703-3.281c7.016-5.375 8.359-15.41 3-22.44c-17.69-23.14-38.39-43.86-61.56-61.61c-7-5.359-17.05-4.016-22.44 2.969C203.4 197.4 204.7 207.4 211.7 212.8C232.7 228.8 251.4 247.5 267.3 268.4zM324.5 402.4C325.7 410.3 332.5 416 340.3 416c.8125 0 1.625-.0625 2.453-.1875c8.734-1.344 14.72-9.531 13.38-18.25c-3.844-24.94-10.61-49.44-20.11-72.88c-3.328-8.188-12.7-12.25-20.84-8.812c-8.188 3.312-12.12 12.62-8.812 20.81C314.1 357.8 321 379.1 324.5 402.4zM432 448H32V48C32 39.16 24.84 32 16 32S0 39.16 0 48v416C0 472.8 7.156 480 16 480h416c8.844 0 16-7.156 16-16S440.8 448 432 448zM77.56 155.5c22.48 3.469 44.59 9.562 65.72 18.14c1.969 .7969 4 1.172 6.016 1.172c6.312 0 12.3-3.766 14.83-9.984C167.4 156.6 163.5 147.3 155.3 143.1c-23.42-9.5-47.94-16.27-72.88-20.11C73.7 122.6 65.55 128.5 64.19 137.2C62.84 145.1 68.83 154.1 77.56 155.5z"/></svg>

<svg xmlns="http://www.w3.org/2000/svg" viewBox="0 0 448 512"><!-- Font Awesome Pro 6.0.0-alpha2 by @fontawesome - https://fontawesome.com License - https://fontawesome.com/license (Commercial License) --><path d="M267.312 268.422C270.469 272.531 275.234 274.703 280.047 274.703C283.437 274.703 286.844 273.625 289.75 271.422C296.766 266.047 298.109 256.016 292.75 248.984C275.062 225.844 254.359 205.125 231.188 187.375C224.188 182.016 214.141 183.359 208.75 190.344C203.375 197.359 204.703 207.406 211.719 212.781C232.656 228.812 251.359 247.531 267.312 268.422ZM324.516 402.438C325.734 410.344 332.547 416 340.312 416C341.125 416 341.937 415.938 342.766 415.812C351.5 414.469 357.484 406.281 356.141 397.562C352.297 372.625 345.531 348.125 336.031 324.687C332.703 316.5 323.328 312.437 315.188 315.875C307 319.187 303.063 328.5 306.375 336.687C314.953 357.844 321.047 379.969 324.516 402.438ZM432 448H32V48C32 39.156 24.844 32 16 32S0 39.156 0 48V464C0 472.844 7.156 480 16 480H432C440.844 480 448 472.844 448 464S440.844 448 432 448ZM77.562 155.484C100.047 158.953 122.156 165.047 143.281 173.625C145.25 174.422 147.281 174.797 149.297 174.797C155.609 174.797 161.594 171.031 164.125 164.812C167.438 156.625 163.5 147.297 155.312 143.969C131.891 134.469 107.375 127.703 82.437 123.859C73.703 122.562 65.547 128.5 64.188 137.234C62.844 145.969 68.828 154.141 77.562 155.484Z"/></svg>
